X: 20930
T: Journey, The
R: reel
M: 4/4
K: Gmajor
DG B E2E Ac|de fa g2d2|ef g B2B dB|cB AG A2 (3BAG|
DG B E2E Ac|de fa g2d2|ef g d2d Bd|dc AF G4:|
cB c d2d BG|cB ce de fa|cB c d2d BG|AG EF G2AB|
cB c d2d BG|zc Bc de fa|cB c d2d BG|AG EF G2z2||

